_src/static/img/sprite/search.svg

<svg width="18" height="18" viewBox="0 0 18 18" fill="none" xmlns="http://www.w3.org/2000/svg">
<path d="M17.6932 16.0568L14.2159 12.5795C15.2386 11.25 15.75 9.61364 15.75 7.875C15.75 3.47727 12.2727 0 7.875 0C3.47727 0 0 3.47727 0 7.875C0 12.2727 3.47727 15.75 7.875 15.75C9.61364 15.75 11.25 15.1364 12.5795 14.2159L16.0568 17.6932C16.2614 17.8977 16.4659 18 16.875 18C17.4886 18 18 17.4886 18 16.875C18 16.6705 17.8977 16.3636 17.6932 16.0568ZM2.25 7.875C2.25 4.80682 4.80682 2.25 7.875 2.25C10.9432 2.25 13.5 4.80682 13.5 7.875C13.5 10.9432 10.9432 13.5 7.875 13.5C4.80682 13.5 2.25 10.9432 2.25 7.875Z" fill="black"/>
</svg>

<svg width="18" height="18" fill="none" xmlns="http://www.w3.org/2000/svg"><path d="M17.693 16.057l-3.477-3.477c1.023-1.33 1.534-2.966 1.534-4.705C15.75 3.477 12.273 0 7.875 0S0 3.477 0 7.875s3.477 7.875 7.875 7.875c1.739 0 3.375-.614 4.704-1.534l3.478 3.477c.204.205.409.307.818.307.614 0 1.125-.511 1.125-1.125 0-.204-.102-.511-.307-.818zM2.25 7.875c0-3.068 2.557-5.625 5.625-5.625S13.5 4.807 13.5 7.875 10.943 13.5 7.875 13.5 2.25 10.943 2.25 7.875z" fill="#000"/></svg>
